symbolic/22x22/apps/distributor-logo-openbsd.svg

<svg width="22" height="22" version="1.1" xmlns="http://www.w3.org/2000/svg">
 <path d="M 12,1.5 10.580078,3.6308594 A 8,8 0 0 0 9.433594,3.9335938 L 8,2.5 V 4.5839844 A 8,8 0 0 0 7.0820312,5.1933594 L 5,4.5 5.6953125,6.5878906 A 8,8 0 0 0 5.0800781,7.5 H 3.5058594 L 4.5117188,8.7109375 A 8,8 0 0 0 4.0742188,10.5 H 3.9277344 C 3.4057105,10.5 3.1541763,8.5169546 2.5332031,8.5 H 1 c 0,0 1.4609375,1 1.4609375,3 0,2 -1.4609375,3 -1.4609375,3 h 1 c 1.1716466,0 1.637609,-1.80444 2.078125,-1.96875 a 8,8 0 0 0 0.3144531,1.412109 L 3.5136719,15 H 4.8125 a 8,8 0 0 0 0.7734375,1.267578 L 5.0078125,18 6.6621094,17.449219 a 8,8 0 0 0 1.3457031,0.976562 V 20 L 9.070312,18.9375 a 8,8 0 0 0 1.886719,0.486328 L 12.007812,21 13.060547,19.419922 a 8,8 0 0 0 1.882812,-0.484375 L 16.007812,20 v -1.587891 a 8,8 0 0 0 1.332032,-0.96875 L 19.007812,18 18.210938,16.533203 A 8,8 0 0 0 18.978516,15.404297 1.5,1.5 0 0 0 19.5,15.5 1.5,1.5 0 0 0 21,14 1.5,1.5 0 0 0 20.615234,13 1.5,1.5 0 0 0 21,12 1.5,1.5 0 0 0 19.935547,10.564453 8,8 0 0 0 18.041016,6.2695312 L 19,4.5 16.912109,5.1953125 A 8,8 0 0 0 16,4.5800781 V 2.5 l -1.431641,1.4316406 a 8,8 0 0 0 -1.144531,-0.296875 z" style="opacity:.2"/>
 <path d="M 12,1 10.580078,3.1308594 A 8,8 0 0 0 9.433594,3.4335938 L 8,2 V 4.0839844 A 8,8 0 0 0 7.0820312,4.6933594 L 5,4 5.6953125,6.0878906 A 8,8 0 0 0 5.0800781,7 H 3.5058594 L 4.5117188,8.2109375 A 8,8 0 0 0 4.0742188,10 H 3.9277344 C 3.4057105,10 3.1541763,8.0169546 2.5332031,8 H 1 C 1,8 2.4609375,9 2.4609375,11 2.4609375,13 1,14 1,14 h 1 c 1.1716466,0 1.637609,-1.80444 2.078125,-1.96875 a 8,8 0 0 0 0.3144531,1.412109 L 3.5136719,14.5 H 4.8125 a 8,8 0 0 0 0.7734375,1.267578 L 5.0078125,17.5 6.6621094,16.949219 a 8,8 0 0 0 1.3457031,0.976562 V 19.5 L 9.070312,18.4375 a 8,8 0 0 0 1.886719,0.486328 L 12.007812,20.5 13.060547,18.919922 a 8,8 0 0 0 1.882812,-0.484375 L 16.007812,19.5 v -1.587891 a 8,8 0 0 0 1.332032,-0.96875 L 19.007812,17.5 18.210938,16.033203 A 8,8 0 0 0 18.978516,14.904297 1.5,1.5 0 0 0 19.5,15 1.5,1.5 0 0 0 21,13.5 1.5,1.5 0 0 0 20.615234,12.5 1.5,1.5 0 0 0 21,11.5 1.5,1.5 0 0 0 19.935547,10.064453 8,8 0 0 0 18.041016,5.7695312 L 19,4 16.912109,4.6953125 A 8,8 0 0 0 16,4.0800781 V 2 l -1.431641,1.4316406 a 8,8 0 0 0 -1.144531,-0.296875 z" style="fill:#ecd96a"/>
 <path d="M 16.5,7.5 A 1.5,2 0 0 0 15,9.5 1.5,2 0 0 0 15.447266,10.921875 2,0.80508476 0 0 1 16,10.890625 2,0.80508476 0 0 1 17.380859,11.115234 1.5,2 0 0 0 18,9.5 1.5,2 0 0 0 16.5,7.5 Z" style="opacity:.1"/>
 <path d="M 16,7.3945312 15,9 A 1.5,2 0 0 0 15.447266,10.421875 2,0.80508476 0 0 1 16,10.390625 2,0.80508476 0 0 1 17.380859,10.615234 1.5,2 0 0 0 18,9 L 17,7.3945312 Z" style="fill:#ffffff"/>
 <path d="m16.5 7a1.5 2 0 0 0-1.5 2s0.534593-1 1.466797-1c0.89002 0 1.533203 1 1.533203 1a1.5 2 0 0 0-1.5-2z" style="fill:#cf9e37"/>
 <path d="m17 9.5a0.5 0.5 0 0 1-0.5 0.5 0.5 0.5 0 0 1-0.5-0.5 0.5 0.5 0 0 1 0.5-0.5 0.5 0.5 0 0 1 0.5 0.5z" style="fill:#3f3f3f"/>
 <path d="m12 1-1.419922 2.1308594a8 8 0 0 0-1.146484 0.3027344l-1.433594-1.4335938v0.5l1.433594 1.4335938a8 8 0 0 1 1.146484-0.3027344l1.419922-2.1308594 1.423828 2.1347656a8 8 0 0 1 1.144531 0.296875l1.431641-1.4316406v-0.5l-1.431641 1.4316406a8 8 0 0 0-1.144531-0.296875zm-7 3 0.1875 0.5625 1.8945312 0.6308594a8 8 0 0 1 0.9179688-0.609375v-0.5a8 8 0 0 0-0.9179688 0.609375zm14 0-2.087891 0.6953125a8 8 0 0 0-0.912109-0.6152344v0.5a8 8 0 0 1 0.912109 0.6152344l1.757813-0.5859375zm-0.798828 1.9726562-0.160156 0.296875a8 8 0 0 1 1.894531 4.2949218 1.5 1.5 0 0 1 1.041015 1.179688 1.5 1.5 0 0 0 0.023438-0.244141 1.5 1.5 0 0 0-1.064453-1.435547 8 8 0 0 0-1.734375-4.0917968zm-12.619141 0.2753907a8 8 0 0 0-0.5019531 0.7519531h-1.5742187l0.4160156 0.5h1.1582031a8 8 0 0 1 0.6152344-0.9121094zm-4.5820312 1.7519531s0.2376788 0.1973818 0.5078125 0.5h1.0253906c0.6209732 0.016955 0.8725074 2 1.3945313 2h0.1464844a8 8 0 0 1 0.4375-1.7890625l-0.1132813-0.1367187a8 8 0 0 0-0.3242187 1.4257812h-0.1464844c-0.5220239 0-0.7735581-1.9830454-1.3945313-2zm1.4394531 3.25c-0.1185464 1.826217-1.4394531 2.75-1.4394531 2.75h0.5078125c0.4243247-0.475351 0.953125-1.277969 0.953125-2.5 0-0.08887-0.015972-0.165083-0.021484-0.25zm18.357422 1.501953a1.5 1.5 0 0 1-0.181641 0.248047 1.5 1.5 0 0 1 0.363282 0.755859 1.5 1.5 0 0 0 0.021484-0.255859 1.5 1.5 0 0 0-0.203125-0.748047zm-16.507812 0.816406-0.7753906 0.931641h0.4160156l0.4628906-0.556641a8 8 0 0 1-0.1035156-0.375zm1.1855469 2.535157-0.4667969 1.396484 0.1875-0.0625 0.390625-1.169922a8 8 0 0 1-0.1113281-0.164062zm12.892579 0.216796a8 8 0 0 1-0.15625 0.212891l0.464843 0.855469 0.332031 0.111328z" style="fill:#ffffff;opacity:.2"/>
</svg>

<svg width="22" height="22" xmlns="http://www.w3.org/2000/svg"><path d="m12 1.5-1.42 2.13a8 8 0 0 0-1.146.304L8 2.5v2.084a8 8 0 0 0-.918.61L5 4.5l.695 2.088a8 8 0 0 0-.615.912H3.506l1.006 1.21a8 8 0 0 0-.438 1.79h-.146c-.522 0-.774-1.983-1.395-2H1s1.46 1 1.46 3-1.46 3-1.46 3h1c1.172 0 1.638-1.804 2.078-1.969a8 8 0 0 0 .315 1.412L3.513 15h1.3a8 8 0 0 0 .773 1.268L5.008 18l1.654-.55a8 8 0 0 0 1.346.976V20l1.062-1.063a8 8 0 0 0 1.887.487L12.007 21l1.054-1.58a8 8 0 0 0 1.882-.484L16.008 20v-1.588a8 8 0 0 0 1.332-.969l1.668.557-.797-1.467a8 8 0 0 0 .768-1.129 1.5 1.5 0 0 0 .521.096A1.5 1.5 0 0 0 21 14a1.5 1.5 0 0 0-.385-1A1.5 1.5 0 0 0 21 12a1.5 1.5 0 0 0-1.064-1.436A8 8 0 0 0 18.04 6.27L19 4.5l-2.088.695A8 8 0 0 0 16 4.58V2.5l-1.432 1.432a8 8 0 0 0-1.144-.297z" style="opacity:.2"/><path d="m12 1-1.42 2.13a8 8 0 0 0-1.146.304L8 2v2.084a8 8 0 0 0-.918.61L5 4l.695 2.088A8 8 0 0 0 5.08 7H3.506l1.006 1.21A8 8 0 0 0 4.074 10h-.146c-.522 0-.774-1.983-1.395-2H1s1.46 1 1.46 3S1 14 1 14h1c1.172 0 1.638-1.804 2.078-1.969a8 8 0 0 0 .315 1.412l-.88 1.057h1.3a8 8 0 0 0 .773 1.268L5.008 17.5l1.654-.55a8 8 0 0 0 1.346.976V19.5l1.062-1.063a8 8 0 0 0 1.887.487l1.05 1.576 1.054-1.58a8 8 0 0 0 1.882-.484l1.065 1.064v-1.588a8 8 0 0 0 1.332-.969l1.668.557-.797-1.467a8 8 0 0 0 .768-1.129A1.5 1.5 0 0 0 19.5 15a1.5 1.5 0 0 0 1.5-1.5 1.5 1.5 0 0 0-.385-1 1.5 1.5 0 0 0 .385-1 1.5 1.5 0 0 0-1.064-1.436A8 8 0 0 0 18.04 5.77L19 4l-2.088.695A8 8 0 0 0 16 4.08V2l-1.432 1.432a8 8 0 0 0-1.144-.297z" style="fill:#ecd96a"/><path d="M16.5 7.5a1.5 2 0 0 0-1.5 2 1.5 2 0 0 0 .447 1.422A2 .805 0 0 1 16 10.89a2 .805 0 0 1 1.38.224A1.5 2 0 0 0 18 9.5a1.5 2 0 0 0-1.5-2z" style="opacity:.1"/><path d="M16 7.395 15 9a1.5 2 0 0 0 .447 1.422A2 .805 0 0 1 16 10.39a2 .805 0 0 1 1.38.224A1.5 2 0 0 0 18 9l-1-1.605z" style="fill:#fff"/><path d="M16.5 7A1.5 2 0 0 0 15 9s.535-1 1.467-1C17.357 8 18 9 18 9a1.5 2 0 0 0-1.5-2z" style="fill:#cf9e37"/><path d="M17 9.5a.5.5 0 0 1-.5.5.5.5 0 0 1-.5-.5.5.5 0 0 1 .5-.5.5.5 0 0 1 .5.5z" style="fill:#3f3f3f"/><path d="m12 1-1.42 2.13a8 8 0 0 0-1.146.304L8 2v.5l1.434 1.434a8 8 0 0 1 1.146-.303L12 1.5l1.424 2.135a8 8 0 0 1 1.144.297L16 2.5V2l-1.432 1.432a8 8 0 0 0-1.144-.297zM5 4l.188.563 1.894.63A8 8 0 0 1 8 4.584v-.5a8 8 0 0 0-.918.61zm14 0-2.088.695A8 8 0 0 0 16 4.08v.5a8 8 0 0 1 .912.615l1.758-.586zm-.799 1.973-.16.297a8 8 0 0 1 1.895 4.294 1.5 1.5 0 0 1 1.04 1.18A1.5 1.5 0 0 0 21 11.5a1.5 1.5 0 0 0-1.064-1.436A8 8 0 0 0 18.2 5.973zm-12.619.275A8 8 0 0 0 5.08 7H3.506l.416.5H5.08a8 8 0 0 1 .615-.912zM1 8s.238.197.508.5h1.025c.621.017.873 2 1.395 2h.146a8 8 0 0 1 .438-1.79l-.114-.136A8 8 0 0 0 4.074 10h-.146c-.522 0-.774-1.983-1.395-2zm1.44 3.25C2.32 13.076 1 14 1 14h.508a3.647 3.647 0 0 0 .953-2.5c0-.089-.016-.165-.022-.25zm18.357 1.502a1.5 1.5 0 0 1-.182.248 1.5 1.5 0 0 1 .364.756A1.5 1.5 0 0 0 21 13.5a1.5 1.5 0 0 0-.203-.748zm-16.508.816-.775.932h.416l.463-.557a8 8 0 0 1-.104-.375zm1.186 2.536L5.008 17.5l.187-.063.39-1.17a8 8 0 0 1-.11-.163zm12.892.216a8 8 0 0 1-.156.213l.465.856.332.111z" style="fill:#fff;opacity:.2"/></svg>
